dist/img/icon-reaction-s4.svg

<svg width="20" height="20" viewBox="0 0 20 20" fill="none" xmlns="http://www.w3.org/2000/svg">
<g clip-path="url(#clip0_4689_25621)">
<path d="M9.9999 19.6C4.7065 19.6 0.399902 15.2934 0.399902 10C0.399902 4.70662 4.7065 0.400024 9.9999 0.400024C15.2933 0.400024 19.5999 4.70662 19.5999 10C19.5999 15.2934 15.2933 19.6 9.9999 19.6ZM9.9999 1.60002C5.3681 1.60002 1.5999 5.36822 1.5999 10C1.5999 14.6318 5.3681 18.4 9.9999 18.4C14.6317 18.4 18.3999 14.6318 18.3999 10C18.3999 5.36822 14.6317 1.60002 9.9999 1.60002ZM14.4683 14.1368C14.7647 13.9886 14.8849 13.6282 14.7367 13.3318C14.6807 13.22 13.3325 10.6 9.9999 10.6C6.6673 10.6 5.3191 13.22 5.2631 13.3316C5.1155 13.627 5.2349 13.985 5.5295 14.134C5.8249 14.2826 6.1845 14.1648 6.3351 13.871C6.3785 13.7864 7.4259 11.8 9.9999 11.8C12.5739 11.8 13.6213 13.7864 13.6631 13.8684C13.7683 14.0788 13.9801 14.2004 14.2005 14.2C14.2905 14.2 14.3821 14.1798 14.4683 14.1368ZM12.9999 8.80002C12.3381 8.80002 11.7999 8.26182 11.7999 7.60002C11.7999 6.93822 12.3381 6.40002 12.9999 6.40002C13.6617 6.40002 14.1999 6.93822 14.1999 7.60002C14.1999 8.26182 13.6617 8.80002 12.9999 8.80002ZM6.9999 8.80002C6.3381 8.80002 5.7999 8.26182 5.7999 7.60002C5.7999 6.93822 6.3381 6.40002 6.9999 6.40002C7.6617 6.40002 8.1999 6.93822 8.1999 7.60002C8.1999 8.26182 7.6617 8.80002 6.9999 8.80002Z" fill="#959EA8"/>
</g>
<defs>
<clipPath id="clip0_4689_25621">
<rect width="20" height="20" fill="white"/>
</clipPath>
</defs>
</svg>

<svg xmlns="http://www.w3.org/2000/svg" width="20" height="20" fill="none" viewBox="0 0 20 20"><g clip-path="url(#a)"><path fill="#959EA8" d="M10 19.6C4.707 19.6.4 15.293.4 10S4.707.4 10 .4s9.6 4.307 9.6 9.6-4.307 9.6-9.6 9.6m0-18c-4.632 0-8.4 3.768-8.4 8.4s3.768 8.4 8.4 8.4 8.4-3.768 8.4-8.4-3.768-8.4-8.4-8.4m4.468 12.537a.6.6 0 0 0 .269-.805C14.68 13.22 13.332 10.6 10 10.6c-3.333 0-4.68 2.62-4.737 2.732a.599.599 0 0 0 1.072.539C6.378 13.786 7.425 11.8 10 11.8c2.574 0 3.621 1.986 3.663 2.068a.6.6 0 0 0 .805.269M13 8.8a1.201 1.201 0 0 1 0-2.4 1.201 1.201 0 0 1 0 2.4m-6 0a1.201 1.201 0 0 1 0-2.4 1.201 1.201 0 0 1 0 2.4"/></g><defs><clipPath id="a"><path fill="#fff" d="M0 0h20v20H0z"/></clipPath></defs></svg>
